packages/ui-icons/src/Basic/16/Mobile-internet_16.svg

<svg xmlns="http://www.w3.org/2000/svg" viewBox="0 0 20 20"><path d="m16.06 13.5.87.5a8 8 0 1 1 0-8l-.87.5a7 7 0 1 0 0 7ZM9 13v-1h.5v-1H9V9.5H8V11H6.14l1.24-3.85-1-.31L5 11.29l.46.71H8v1Zm11-3.5h-1.5V8h-1v1.5H16v1h1.5V12h1v-1.5H20Zm-5.8-1.1.6-.8a3.06 3.06 0 0 0-3.92.28 3 3 0 0 0 3.92 4.52l.2-.15V9.5h-2v1h1v1.23a2 2 0 0 1-2.41-.32 2 2 0 0 1 0-2.83 2 2 0 0 1 2.61-.18Z"/></svg>

<svg id="ready" xmlns="http://www.w3.org/2000/svg" viewBox="0 0 20 20"><title>Megaicons_work_16_1.8_cp</title><path d="M16.06,13.5l.87.5a8,8,0,1,1,0-8l-.87.5a7,7,0,1,0,0,7ZM9,13V12h.5V11H9V9.5H8V11H6.14L7.38,7.15l-1-.31L5,11.29l.46.71H8v1ZM20,9.5H18.5V8h-1V9.5H16v1h1.5V12h1V10.5H20ZM14.2,8.4l.6-.8a3.06,3.06,0,0,0-3.92.28A3,3,0,0,0,14.8,12.4l.2-.15V9.5H13v1h1v1.23a2,2,0,0,1-2.41-.32,2,2,0,0,1,0-2.83A2,2,0,0,1,14.2,8.4Z"/></svg>
